X: 1118
T: Hüsnüne Edvâr-ı Nâzın...
C: Lem´i Atlı
O: Turkey
F: http://compmusic.upf.edu/node/140
N: karcigar--sarki--agiraksak--husnune_edvar-i--lemi_atli
N: makam= karcigar
N: form= sarki
N: usul= agiraksak = 9/4
M: 9/4
L: 1/16
K: C _2/4B _3/4e ^3/4f 
Q: 1/4=66
%%MIDI tuningsystem comma53
baga g2c'2 b3c' a3b g3a f3g e3f d2ef edc2  | 
w:  ARANAĞME  | 
dcBc defg a_bag fedc c3B BcBA A4 defg a4  | 
w:   | 
baga g2c'2 b3c' a3b g3a f3g e3f d2ef edc2  | 
w:  ARANAĞME  | 
dcBc defg a_bag fedc c3B BcBA A6fe dcBc  | 
w:   | 
d3e dcd2 z2c2 B2c2 d8 e2f2 d4 g4  | \
w:  *  *  *  *  *  Hüs *  nü ne  ed  | 
_bagf edcB c2c4d2 e2dc f2ed d12  | 
w:  *  *  *  *  *  *  *  *  *  vâr_ ı  nâ *  *  *  *  *  zın   | 
_b3a g2f2 g3f e2d2 c3d e2f2 g2a2 f3e feed  | \
w:  şân  *  *  *  *  *  *  *  *  *  *  *  *  *  *  *  se  | 
d8 d2ef edc2 d2dc Bcde c2d4cB f2ed  | 
w:  nin   SAZ  | 
dcde fgab c'2c'2 b2a2 g3f e2d2 d2ed c2B2 c2d2  | 
w:  *  *  *  *  *  *  *  *  *  Ben *  de  tâ *  *  *  kat   | 
e2f2 g2a2 z2g2 f2e2 d2cB f2ed d12  | \
w:  *  *  *  *  kal *  ma dı  *  *  *  *  *  fer  | 
g3f e2d2 c2B2 A2G2 A2B2 c2d2 e2dc c3B B2BA  | 
w:  man  *  *  *  *  *  *  *  *  *  *  *  *  *  *  *  *  se  | 
A8 d2ef edc2 d2dc Bcde c2d4cB f2ed  | 
w:  nin   SAZ  | 
dcde fgab c'2c'2 b2a2 g3f e2d2 d2ed c2B2 c2d2  | 
w:  *  *  *  *  *  *  *  *  *  Ben *  de  tâ *  *  *  kat   | 
e2f2 g2a2 z2g2 f2e2 d2cB f2ed d12  | \
w:  *  *  *  *  kal *  ma dı  *  *  *  *  *  fer  | 
g3f e2d2 c2B2 A2G2 A2B2 c2d2 e2dc c3B B2BA  | 
w:  man  *  *  *  *  *  *  *  *  *  *  *  *  *  *  *  *  se  | 
A12 f2g2 a2ag fgab g2a4g2 c'2ba  | \
w:  nin   SAZ  | 
a8 z2g4a2 a8 _b2ag a2bc' b2ag  | 
w:  *  İh ti yâ rım   | 
f2ed d4 z2g4a2 b2ag c'2ba a12  | _b3a g2f2 g3f e3d c3d e2f2 g2a2 f3e feed  | 
w:  *  *  *  *  git ti  el *  *  *  *  *  den   |  cân  *  *  *  *  *  *  *  *  *  *  *  *  *  *  *  se  | 
d8 d2ef edc2 d2dc Bcde c2d4cB f2ed  | 
w:  nin   SAZ  | 
dcde fgab c'2c'2 b2a2 g3f e2d2 d2ed c2B2 c2d2  | 
w:  *  *  *  *  *  *  *  *  *  Ben *  de  tâ *  *  *  kat   | 
e2f2 g2a2 z2g2 f2e2 d2cB f2ed d12  | \
w:  *  *  *  *  kal *  ma dı  *  *  *  *  *  fer  | 
g3f e2d2 c2B2 A2G2 A2B2 c2d2 e2dc c3B B2BA  | 
w:  man  *  *  *  *  *  *  *  *  *  *  *  *  *  *  *  *  se  | 
A8 d2ef edc2 d2dc Bcde c2d4cB f2ed  | 
w:  nin   SAZ  | 
dcde fgab c'2c'2 b2a2 g3f e2d2 d2ed c2B2 c2d2  | 
w:  *  *  *  *  *  *  *  *  *  Ben *  de  tâ *  *  *  kat   | 
e2f2 g2a2 z2g2 f2e2 d2cB f2ed d12  | \
w:  *  *  *  *  kal *  ma dı  *  *  *  *  *  fer  | 
g3f e2d2 c2B2 A2G2 A2B2 c2d2 e2dc c3B B2BA  | 
w:  man  *  *  *  *  *  *  *  *  *  *  *  *  *  *  *  *  se  | 
A12 |
w:  nin    | 


